SF_Symbols/scribble.svg

<?xml version="1.0" encoding="UTF-8"?>
<svg xmlns="http://www.w3.org/2000/svg" xmlns:xlink="http://www.w3.org/1999/xlink" width="24" height="24" viewBox="0 0 24 24" version="1.1">
<g id="surface1">
<path style=" stroke:none;fill-rule:nonzero;fill:rgb(100%,100%,100%);fill-opacity:1;" d="M 0.339844 15.691406 C 0.519531 15.871094 0.726562 15.960938 0.960938 15.960938 C 1.203125 15.960938 1.414062 15.871094 1.59375 15.691406 L 3.65625 13.628906 C 5.09375 12.191406 6.410156 10.882812 7.605469 9.703125 C 8.800781 8.515625 9.875 7.484375 10.828125 6.609375 C 11.78125 5.726562 12.621094 5.019531 13.347656 4.488281 C 14.074219 3.957031 14.6875 3.617188 15.1875 3.46875 C 15.695312 3.320312 16.09375 3.390625 16.382812 3.679688 C 16.632812 3.929688 16.683594 4.289062 16.535156 4.757812 C 16.386719 5.226562 16.089844 5.785156 15.644531 6.433594 C 15.199219 7.082031 14.648438 7.804688 13.992188 8.601562 C 13.335938 9.390625 12.628906 10.234375 11.871094 11.132812 C 11.230469 11.882812 10.597656 12.632812 9.972656 13.382812 C 9.355469 14.132812 8.796875 14.871094 8.296875 15.597656 C 7.804688 16.316406 7.417969 17.011719 7.136719 17.683594 C 6.863281 18.347656 6.746094 18.976562 6.785156 19.570312 C 6.832031 20.15625 7.09375 20.6875 7.570312 21.164062 C 7.984375 21.578125 8.441406 21.816406 8.941406 21.878906 C 9.449219 21.949219 9.988281 21.878906 10.558594 21.667969 C 11.128906 21.457031 11.71875 21.148438 12.328125 20.742188 C 12.945312 20.328125 13.570312 19.847656 14.203125 19.300781 C 14.835938 18.753906 15.460938 18.179688 16.078125 17.578125 C 16.671875 17.007812 17.222656 16.480469 17.730469 15.996094 C 18.246094 15.511719 18.710938 15.105469 19.125 14.777344 C 19.546875 14.441406 19.90625 14.214844 20.203125 14.097656 C 20.5 13.972656 20.726562 13.984375 20.882812 14.132812 C 21.148438 14.398438 21.140625 14.792969 20.859375 15.316406 C 20.578125 15.832031 20.214844 16.472656 19.769531 17.238281 C 19.488281 17.722656 19.207031 18.214844 18.925781 18.714844 C 18.644531 19.207031 18.417969 19.6875 18.246094 20.15625 C 18.074219 20.625 18 21.070312 18.023438 21.492188 C 18.054688 21.914062 18.238281 22.292969 18.574219 22.628906 C 19.097656 23.152344 19.785156 23.261719 20.636719 22.957031 C 21.496094 22.660156 22.472656 21.949219 23.566406 20.824219 C 23.792969 20.605469 23.910156 20.375 23.917969 20.132812 C 23.925781 19.882812 23.839844 19.667969 23.660156 19.488281 C 23.480469 19.316406 23.269531 19.230469 23.027344 19.230469 C 22.792969 19.230469 22.585938 19.320312 22.40625 19.5 C 21.835938 20.023438 21.367188 20.429688 21 20.71875 C 20.640625 21 20.355469 21.179688 20.144531 21.257812 C 19.941406 21.335938 19.792969 21.328125 19.699219 21.234375 C 19.589844 21.125 19.566406 20.960938 19.628906 20.742188 C 19.699219 20.523438 19.855469 20.207031 20.097656 19.792969 C 20.347656 19.378906 20.679688 18.828125 21.09375 18.140625 C 21.625 17.273438 22.03125 16.519531 22.3125 15.878906 C 22.601562 15.230469 22.738281 14.667969 22.722656 14.191406 C 22.714844 13.707031 22.53125 13.285156 22.171875 12.925781 C 21.679688 12.425781 21.097656 12.234375 20.425781 12.351562 C 19.753906 12.46875 18.957031 12.863281 18.035156 13.535156 C 17.113281 14.207031 16.039062 15.128906 14.8125 16.300781 C 13.601562 17.441406 12.601562 18.320312 11.8125 18.9375 C 11.023438 19.546875 10.390625 19.925781 9.914062 20.074219 C 9.4375 20.214844 9.074219 20.160156 8.824219 19.910156 C 8.511719 19.613281 8.449219 19.167969 8.636719 18.574219 C 8.824219 17.972656 9.289062 17.164062 10.03125 16.148438 C 10.78125 15.132812 11.835938 13.84375 13.195312 12.28125 C 14.335938 10.96875 15.296875 9.804688 16.078125 8.789062 C 16.859375 7.765625 17.445312 6.867188 17.835938 6.09375 C 18.226562 5.3125 18.40625 4.625 18.375 4.03125 C 18.351562 3.4375 18.101562 2.902344 17.625 2.425781 C 17.15625 1.957031 16.652344 1.675781 16.113281 1.582031 C 15.574219 1.488281 14.933594 1.617188 14.191406 1.96875 C 13.457031 2.320312 12.5625 2.921875 11.507812 3.773438 C 10.460938 4.625 9.195312 5.761719 7.710938 7.183594 C 6.226562 8.597656 4.460938 10.328125 2.414062 12.375 L 0.339844 14.4375 C 0.167969 14.617188 0.0820312 14.828125 0.0820312 15.070312 C 0.0820312 15.304688 0.167969 15.511719 0.339844 15.691406 Z M 0.339844 15.691406 "/>
</g>
</svg>

<svg xmlns="http://www.w3.org/2000/svg" width="24" height="24"><path style="stroke:none;fill-rule:nonzero;fill:#fff;fill-opacity:1" d="M.34 15.691c.18.18.387.27.62.27.243 0 .454-.09.634-.27l2.062-2.062a935.457 935.457 0 0 1 3.95-3.926 120.454 120.454 0 0 1 3.222-3.094c.953-.882 1.793-1.59 2.52-2.12.726-.532 1.34-.872 1.84-1.02.507-.149.906-.078 1.195.21.25.25.3.61.152 1.079s-.445 1.027-.89 1.676c-.52.746-1.07 1.468-1.653 2.168-.656.789-1.363 1.632-2.12 2.53-.642.75-1.274 1.5-1.9 2.25a32.927 32.927 0 0 0-1.675 2.216 11.835 11.835 0 0 0-1.16 2.086c-.274.664-.39 1.293-.352 1.886.047.586.309 1.117.785 1.594.414.414.871.652 1.371.715.508.07 1.047 0 1.618-.211a8.576 8.576 0 0 0 1.77-.926 19.112 19.112 0 0 0 1.874-1.441 43.31 43.31 0 0 0 1.875-1.723c.594-.57 1.145-1.098 1.652-1.582.516-.484.98-.89 1.395-1.219.422-.336.781-.562 1.078-.68.297-.124.524-.113.68.036.265.265.258.66-.024 1.183a93.27 93.27 0 0 1-1.09 1.922c-.28.485-.562.977-.843 1.477a9.71 9.71 0 0 0-.68 1.441 3.318 3.318 0 0 0-.223 1.336c.032.422.215.801.551 1.137.524.523 1.211.633 2.063.328.86-.297 1.836-1.008 2.93-2.133.226-.219.343-.449.351-.691a.834.834 0 0 0-.258-.645.873.873 0 0 0-.633-.258.851.851 0 0 0-.62.27c-.571.523-1.04.93-1.407 1.219-.36.281-.645.46-.855.539-.204.078-.352.07-.446-.024-.11-.109-.133-.273-.07-.492.07-.219.226-.535.469-.949l.996-1.652c.531-.868.937-1.621 1.218-2.262.29-.649.426-1.211.41-1.688a1.782 1.782 0 0 0-.55-1.265c-.492-.5-1.074-.692-1.746-.574-.672.117-1.469.511-2.39 1.183-.923.672-1.997 1.594-3.224 2.766-1.21 1.14-2.21 2.02-3 2.637-.789.609-1.421.988-1.898 1.136-.476.14-.84.086-1.09-.164-.312-.297-.375-.742-.187-1.336.187-.601.652-1.41 1.394-2.426.75-1.015 1.805-2.304 3.164-3.867a76.784 76.784 0 0 0 2.883-3.492c.781-1.023 1.367-1.922 1.758-2.695.39-.782.57-1.469.539-2.063-.023-.593-.273-1.129-.75-1.605-.469-.469-.973-.75-1.512-.844-.539-.094-1.18.035-1.922.387-.734.351-1.629.953-2.683 1.804-1.047.852-2.313 1.989-3.797 3.41a331.937 331.937 0 0 0-5.297 5.192L.34 14.438a.889.889 0 0 0 0 1.253Zm0 0"/></svg>
